X: 13
T:The West End
% Nottingham Music Database
S:Kevin Briggs, via EF
P:AAB
M:4/4
L:1/4
K:D
P:A
A/2G/2|"D"F/2G/2A/2F/2 Dd|"A"c/2d/2e/2c/2 Ae/2f/2|"G"g/2f/2e/2d/2 "E7"Be/2d/2|\
"A7"cA AA/2G/2|
"D"F/2G/2A/2F/2 Dd|"A"c/2d/2e/2c/2 Ae/2f/2|"G"g/2f/2e/2d/2 "A7"B/2d/2c/2e/2|\
"D"dd d:|
P:B
f/2g/2|"D"a/2f/2d/2f/2 aa|"A"g/2e/2c/2e/2 gg|"Bm"f/2e/2d/2c/2 "E7"Be/2d/2|\
"A7"cA Af/2g/2|
"D"a/2f/2d/2f/2 aa|"A"g/2e/2c/2e/2 gg|"D"a/2f/2d/2f/2 "A7"g/2e/2c/2e/2|\
"D"df "A7"df/2g/2|
"D"a/2f/2d/2f/2 aa|"A"g/2e/2c/2e/2 gg|"Bm"f/2e/2d/2c/2 "E7"Be/2d/2|\
"A7"cA AA/2G/2|
"D"F/2G/2A/2F/2 Dd|"A"c/2d/2e/2c/2 Ae/2f/2|"G"g/2f/2e/2d/2 "A7"B/2d/2c/2e/2|\
"D"dd d||


